src/assets/icons/truck-icon.svg

<svg width="48" height="32" viewBox="0 0 48 32" fill="none" xmlns="http://www.w3.org/2000/svg">
<g clip-path="url(#clip0_4196_13367)">
<path d="M19.7827 20.225V16.0955H16.271V20.225H13.5602L16.8255 23.4915C17.5031 24.1695 18.5505 24.1695 19.2282 23.4915L22.4935 20.225H19.7827ZM11.7735 18.4992V9.56242L8.50827 12.829C7.83058 13.5069 7.83058 14.5547 8.50827 15.2327L11.7735 18.4992ZM16.271 7.77504V11.9045H19.7827V7.77504H22.4935L19.2282 4.50848C18.5505 3.83051 17.5031 3.83051 16.8255 4.50848L13.5602 7.77504H16.271ZM27.5454 12.829L24.2185 9.56242V18.4992L27.4838 15.2327C28.1615 14.5547 28.1615 13.5069 27.5454 12.829Z" fill="#DA291C"/>
</g>
<path d="M33 8.5H40.5L46.5 16.5V26.5H44" stroke="#575C66" stroke-width="1.5"/>
<path d="M33.5 15H45" stroke="#575C66" stroke-width="1.5"/>
<circle cx="39" cy="26" r="5.25" stroke="#575C66" stroke-width="1.5"/>
<circle cx="10" cy="26" r="5.25" stroke="#575C66" stroke-width="1.5"/>
<path d="M8 2.5H32C32.2761 2.5 32.5 2.72386 32.5 3V25C32.5 25.2761 32.2761 25.5 32 25.5H14.9753C14.9916 25.6645 15 25.8313 15 26C15 26.3425 14.9656 26.6769 14.9 27H32C33.1046 27 34 26.1046 34 25V3C34 1.89543 33.1046 1 32 1H8C3.58172 1 0 4.58172 0 9V25C0 26.1046 0.89543 27 2 27H5.10002C5.03443 26.6769 5 26.3425 5 26C5 25.8313 5.00836 25.6645 5.02469 25.5H2C1.72386 25.5 1.5 25.2761 1.5 25V9C1.5 5.41015 4.41015 2.5 8 2.5Z" fill="#575C66"/>
<defs>
<clipPath id="clip0_4196_13367">
<rect width="20" height="20" fill="white" transform="translate(8 4)"/>
</clipPath>
</defs>
</svg>

<svg xmlns="http://www.w3.org/2000/svg" width="48" height="32" fill="none"><g clip-path="url(#a)"><path fill="#DA291C" d="M19.783 20.225v-4.13H16.27v4.13h-2.71l3.265 3.266a1.673 1.673 0 0 0 2.402 0l3.265-3.266zm-8.01-1.726V9.562L8.509 12.83a1.675 1.675 0 0 0 0 2.404zm4.498-10.724v4.13h3.512v-4.13h2.71l-3.265-3.267a1.673 1.673 0 0 0-2.402 0L13.56 7.775zm11.274 5.054-3.327-3.267V18.5l3.266-3.266a1.73 1.73 0 0 0 .061-2.404"/></g><path stroke="#575C66" stroke-width="1.5" d="M33 8.5h7.5l6 8v10H44M33.5 15H45"/><circle cx="39" cy="26" r="5.25" stroke="#575C66" stroke-width="1.5"/><circle cx="10" cy="26" r="5.25" stroke="#575C66" stroke-width="1.5"/><path fill="#575C66" d="M8 2.5h24a.5.5 0 0 1 .5.5v22a.5.5 0 0 1-.5.5H14.975A5 5 0 0 1 14.9 27H32a2 2 0 0 0 2-2V3a2 2 0 0 0-2-2H8a8 8 0 0 0-8 8v16a2 2 0 0 0 2 2h3.1a5 5 0 0 1-.075-1.5H2a.5.5 0 0 1-.5-.5V9A6.5 6.5 0 0 1 8 2.5"/><defs><clipPath id="a"><path fill="#fff" d="M8 4h20v20H8z"/></clipPath></defs></svg>
